src/static/icons/sessions_icon.svg

<?xml version="1.0" encoding="UTF-8"?>
<svg width="24px" height="22px" viewBox="0 0 24 22" version="1.1" xmlns="http://www.w3.org/2000/svg" xmlns:xlink="http://www.w3.org/1999/xlink">
    <!-- Generator: Sketch 52.2 (67145) - http://www.bohemiancoding.com/sketch -->
    <title>sessions_icon</title>
    <desc>Created with Sketch.</desc>
    <g id="sessions_icon" stroke="none" stroke-width="1" fill="none" fill-rule="evenodd">
        <g id="sessions-icon" fill="#007AFF">
            <path d="M18.2036195,19.4762704 C17.9662595,19.4762704 17.7534013,19.3125236 17.7038875,19.0744378 C17.6477378,18.8026986 17.8253749,18.5374891 18.1015292,18.4822371 C20.4118327,18.0166137 21.5787248,16.8081023 22.3495066,15.9250753 C21.8079176,15.0646514 20.5869176,13.6682834 18.8672064,13.0851239 C16.8841023,12.413059 16.4583858,12.1568908 16.4583858,10.9619413 C16.4583858,10.7389242 16.6074376,10.5430309 16.8243795,10.4802445 C17.1480058,10.3863162 17.5517729,10.3838047 18.0193465,10.3812933 C18.7156023,10.3772749 19.5818385,10.372252 19.8651391,10.0010592 C20.1050513,9.68562069 20.0044924,9.46009218 19.5037395,8.70514931 C19.3812311,8.52030634 19.2520869,8.32441298 19.1280472,8.11445548 C18.1627834,6.47698791 18.0902992,5.75218248 18.0060747,4.91285478 L17.9897403,4.74810344 C17.7794343,2.73843848 16.6896203,1.64846774 14.7509255,1.50832864 C13.0562265,1.63038527 12.0062278,2.4847817 11.630025,4.04740796 C11.5651977,4.31764034 11.2895538,4.48389855 11.0154414,4.42010763 C10.7413289,4.35631672 10.5713486,4.08558205 10.6366864,3.81585196 C11.1165108,1.82226031 12.5656826,0.645393277 14.7167253,0.503245018 C14.7391851,0.502240437 14.7621554,0.502240437 14.7851258,0.503245018 C17.2444811,0.666489485 18.7431667,2.13669427 19.0050283,4.64513385 L19.0223837,4.81440581 C19.1004828,5.59647237 19.1571429,6.16154937 20.0111283,7.61015565 C20.1254694,7.80454214 20.2454255,7.98486449 20.3587457,8.15614561 C20.8360179,8.87592813 21.3770965,9.69164818 20.6813511,10.6033057 C20.0943319,11.3738196 18.9473473,11.3803494 18.0254719,11.3858746 C17.8636588,11.3868792 17.6998038,11.3873815 17.5517729,11.393409 C17.6870426,11.6038687 18.077538,11.7555605 19.1995104,12.1357946 C21.4301834,12.8912397 22.9043674,14.7637793 23.424007,15.7512828 C23.518951,15.9326097 23.4934284,16.1531153 23.3591797,16.3078208 L23.2815911,16.3977309 C22.4735463,17.3329961 21.1208498,18.8996407 18.3067307,19.4657222 C18.27202,19.4727543 18.2373093,19.4762704 18.2036195,19.4762704" id="Fill-6"></path>
            <path d="M9.26295928,21.799867 C4.14619339,21.799867 0.553635702,21.0514539 0.403052508,21.0193073 C0.159056689,20.9680736 -0.0109236622,20.7500795 0.000306270903,20.5044593 C0.197340552,16.4374118 2.77103704,15.1751554 4.6903347,14.5789364 C6.12164072,14.1344091 6.89395385,13.4045808 6.90161062,13.3970464 C7.10272851,13.2031622 7.42533386,13.206176 7.6228786,13.4040785 C7.81940242,13.6014787 7.81838152,13.9179218 7.61828453,14.1123083 C7.58102157,14.1489755 6.67905376,15.0144224 4.99762651,15.5368047 C3.20492082,16.093845 1.35402366,17.078837 1.05234682,20.1192024 C2.15594298,20.3155981 5.26459264,20.7952856 9.26295928,20.7952856 C13.2613259,20.7952856 16.3699756,20.3155981 17.4735717,20.1192024 C17.1713844,17.078837 15.3209977,16.093845 13.5282921,15.5373069 C11.8463543,15.0144224 10.944897,14.1489755 10.9071236,14.1123083 C10.7070266,13.9174196 10.7054952,13.5989673 10.9035504,13.401567 C11.1010952,13.2051714 11.4237005,13.2036645 11.6243079,13.3970464 C11.6452365,13.417138 12.4160182,14.1379252 13.8355839,14.5794386 C15.7543711,15.1751554 18.328578,16.4369095 18.5256123,20.5044593 C18.5368422,20.7500795 18.3668619,20.9680736 18.1228661,21.0193073 C17.9722829,21.0514539 14.3792147,21.799867 9.26295928,21.799867" id="Fill-3"></path>
            <path d="M5.44330171,10.1897698 C5.45657345,10.1978065 5.4708661,10.2063454 5.48515874,10.2148844 C5.67861986,10.333425 5.8465584,10.4358923 5.90934394,10.6508727 C6.10790957,11.3309742 7.45345974,13.8670398 9.26301033,13.8670398 C11.0725609,13.8670398 12.4176006,11.3309742 12.6166767,10.6503704 C12.6794622,10.4358923 12.8468903,10.333425 13.0408619,10.2148844 C13.0551546,10.2063454 13.0689367,10.1978065 13.0822085,10.1897698 C13.5661165,9.31377491 13.4681098,8.95614395 13.4247214,8.86522934 C13.3757181,8.76175747 13.2751592,8.72860628 13.2741383,8.72860628 C13.0219752,8.68289783 12.8433172,8.45988077 12.8570994,8.20773086 C12.8576098,8.19718276 12.908655,7.18607165 12.6595546,6.26085224 C12.6355634,6.17747199 12.0112812,4.10702986 9.26301033,4.10702986 C6.48768549,4.10702986 5.87106008,6.2412629 5.86544511,6.2628614 C5.61685523,7.18607165 5.66790038,8.19718276 5.66841083,8.20773086 C5.68219302,8.45988077 5.50353499,8.68289783 5.25137195,8.72860628 C5.24677788,8.73061544 5.14519804,8.76175747 5.09619469,8.87527516 C5.05637947,8.96769664 4.96858181,9.32934592 5.44330171,10.1897698 M9.26301033,14.8716211 C6.80875949,14.8716211 5.32385606,12.0000254 4.98338491,11.0908793 C4.97113407,11.0833449 4.95837278,11.0763129 4.9466324,11.0682762 C4.7929865,10.9743479 4.68170807,10.9070409 4.60462989,10.7734316 C4.0467064,9.80149914 3.90224862,9.01591654 4.17585063,8.44029144 C4.29784854,8.18362091 4.47650656,8.01886957 4.64291375,7.91389082 C4.64546601,7.48845063 4.68221852,6.73551692 4.8792528,6.00367942 C5.15438616,4.99859579 6.42387906,3.10244853 9.26301033,3.10244853 C12.1021416,3.10244853 13.3716345,4.99859579 13.6457469,6.00167025 C13.8438021,6.73501463 13.8805546,7.48794834 13.8831069,7.91389082 C14.0490036,8.01886957 14.2276617,8.18362091 14.3496596,8.44029144 C14.6232616,9.01591654 14.4793143,9.80149914 13.9208803,10.7729293 C13.8443126,10.9070409 13.7330342,10.9743479 13.5788778,11.0682762 C13.5671374,11.0763129 13.5548866,11.0833449 13.5426357,11.0908793 C13.2011437,12.0005277 11.7167507,14.8716211 9.26301033,14.8716211" id="Fill-1"></path>
        </g>
    </g>
</svg>

<svg width="24" height="22" viewBox="0 0 24 22" xmlns="http://www.w3.org/2000/svg"><title>sessions_icon</title><g fill="#007AFF" fill-rule="evenodd"><path d="M18.204 19.476a.509.509 0 0 1-.5-.402.502.502 0 0 1 .398-.592c2.31-.465 3.477-1.674 4.248-2.557-.542-.86-1.763-2.257-3.483-2.84-1.983-.672-2.409-.928-2.409-2.123 0-.223.15-.419.366-.482.324-.094.728-.096 1.195-.099.697-.004 1.563-.009 1.846-.38.24-.315.14-.54-.361-1.296a13.4 13.4 0 0 1-.376-.59c-.965-1.638-1.038-2.363-1.122-3.202l-.016-.165c-.21-2.01-1.3-3.1-3.24-3.24-1.694.122-2.744.977-3.12 2.54a.51.51 0 0 1-.615.372.501.501 0 0 1-.378-.604c.48-1.994 1.929-3.17 4.08-3.313a.777.777 0 0 1 .068 0c2.46.163 3.958 1.634 4.22 4.142l.017.17c.078.781.135 1.347.99 2.795.113.195.233.375.347.546.477.72 1.018 1.536.322 2.447-.587.77-1.734.777-2.656.783-.161 0-.325.001-.473.007.135.21.526.363 1.648.743 2.23.755 3.704 2.628 4.224 3.615a.497.497 0 0 1-.065.557l-.077.09c-.808.935-2.161 2.502-4.975 3.068a.52.52 0 0 1-.103.01"/><path d="M9.263 21.8c-5.117 0-8.71-.749-8.86-.78A.504.504 0 0 1 0 20.503c.197-4.067 2.771-5.329 4.69-5.925 1.432-.445 2.204-1.174 2.212-1.182a.516.516 0 0 1 .72.007.496.496 0 0 1-.004.708c-.037.037-.939.902-2.62 1.425-1.793.557-3.644 1.542-3.946 4.582 1.104.197 4.213.676 8.211.676s7.107-.48 8.21-.676c-.302-3.04-2.152-4.025-3.945-4.582-1.682-.523-2.583-1.388-2.62-1.425a.498.498 0 0 1-.004-.71.517.517 0 0 1 .72-.005c.021.02.792.74 2.212 1.182 1.918.596 4.493 1.858 4.69 5.925a.504.504 0 0 1-.403.515c-.15.032-3.744.78-8.86.78"/><path d="M5.443 10.19l.042.025c.194.118.362.22.424.436.199.68 1.544 3.216 3.354 3.216s3.155-2.536 3.354-3.217c.062-.214.23-.317.424-.435l.041-.025c.484-.876.386-1.234.343-1.325a.275.275 0 0 0-.15-.136.504.504 0 0 1-.418-.521c0-.01.052-1.022-.197-1.947-.024-.084-.649-2.154-3.397-2.154-2.775 0-3.392 2.134-3.398 2.156-.248.923-.197 1.934-.197 1.945a.504.504 0 0 1-.417.52c-.004.003-.106.034-.155.147-.04.093-.127.454.347 1.315m3.82 4.682c-2.454 0-3.94-2.872-4.28-3.781l-.036-.023c-.154-.094-.265-.161-.342-.295-.558-.972-.703-1.757-.43-2.333.123-.256.302-.421.468-.526.002-.426.04-1.178.236-1.91.275-1.005 1.545-2.902 4.384-2.902 2.84 0 4.109 1.897 4.383 2.9.198.733.235 1.486.237 1.912.166.105.345.27.467.526.273.576.13 1.361-.43 2.333-.076.134-.187.201-.341.295l-.036.023c-.342.91-1.826 3.78-4.28 3.78"/></g></svg>
